X: 9
T: The Laurel Tree
R: reel
M: 4/4
L: 1/8
K: Edor
|:BE E2 B2AG|FEDE FE (3FGA|BE E2 B2AG|FEDE FE E2|
BE E2 B2AG|FEDE FE (3FGA|B3c deec|dBAF FE (3FGA:|
|:Beed BdAG|FEDE FE (3FGA|Beed BdAG|FEDE FE E2|
Beed BdAG|FEDE FA A2|B3c deec|dBAF FE (3FGA|
Beed BdAG|FEDE FGAd|Beed e2de|fedf e3d|
Beed BdAG|FEDE FA A2|B3c deec|dBAF E2 (3FGA||


Tune 883	Setting 14066

